X: 11416
T: East Winds
R: reel
M: 4/4
K: Eminor
eg~g2 egb2|a2ef gbag|fefg b2ef|g2ef edBA|
FA~A2 Bdfa|geBe f4|eg~g2 egbg|1 afdf e4:|2 afdf e2A2||
|:BGEG A2GF|G2EF GABd|egbg a2gf|g2Bd cBAc|
Beed egbg|a2gf egf2|eg~g2 egbg|1 afdf e2A2:|2 afdf e4||

